src/assets/icons/Tumblr.svg

<?xml version="1.0" encoding="UTF-8"?>
<svg width="24px" height="24px" viewBox="0 0 24 24" version="1.1" xmlns="http://www.w3.org/2000/svg" xmlns:xlink="http://www.w3.org/1999/xlink">
    <!-- Generator: Sketch 60 (88103) - https://sketch.com -->
    <title>09 Icons / Social / Tumblr</title>
    <desc>Created with Sketch.</desc>
    <g stroke="none" stroke-width="1" fill="none" fill-rule="evenodd">
        <path fill="white" d="M14.5795155,24 C10.9706288,24 8.2805322,22.1431405 8.2805322,17.7005648 L8.2805322,10.5858165 L5,10.5858165 L5,6.73337517 C8.61039287,5.79605874 10.1196184,2.68994603 10.2943391,0 L14.0417974,0 L14.0417974,6.10844735 L18.4143341,6.10844735 L18.4143341,10.5858165 L14.0417974,10.5858165 L14.0417974,16.7810217 C14.0417974,18.6380319 14.978662,19.2798293 16.4713192,19.2798293 L18.5890549,19.2798293 L18.5890549,24 L14.5795155,24"></path>
        <path fill="#000000" d="M14.5795155,24 C10.9706288,24 8.2805322,22.1431405 8.2805322,17.7005648 L8.2805322,10.5858165 L5,10.5858165 L5,6.73337517 C8.61039287,5.79605874 10.1196184,2.68994603 10.2943391,0 L14.0417974,0 L14.0417974,6.10844735 L18.4143341,6.10844735 L18.4143341,10.5858165 L14.0417974,10.5858165 L14.0417974,16.7810217 C14.0417974,18.6380319 14.978662,19.2798293 16.4713192,19.2798293 L18.5890549,19.2798293 L18.5890549,24 L14.5795155,24"></path>
    </g>
</svg>

<svg width="24" height="24" viewBox="0 0 24 24" xmlns="http://www.w3.org/2000/svg" xmlns:xlink="http://www.w3.org/1999/xlink">
    <path fill="#000" fill-rule="evenodd" d="M14.58 24c-3.61 0-6.3-1.857-6.3-6.3v-7.114H5V6.733C8.61 5.796 10.12 2.69 10.294 0h3.748v6.108h4.372v4.478h-4.372v6.195c0 1.857.937 2.499 2.43 2.499h2.117V24h-4.01" />
</svg>
